X:84
%%etbk:tnset id:145,pos:2,rep:3x,ant:
%%etbk:wsite http://www.thesession.org/tunes/display/263
%%etbk:pldat 2016-09-10T14:22,2016-09-06T15:23,2016-03-25T15:45,2016-02-26T17:41,2016-01-21T18:59,2016-01-01T15:02,2015-12-24T14:49,2014-11-18T16:46,2014-05-02T17:20,2014-02-18T17:50,2014-02-09T11:28,2013-11-11T18:17,2013-11-10T15:10
T: Porthole Of The Kelp
T: Bobby Casey's
Z: Piano Box Version by Martin Fleischmann
H: Created 2013-02-19 /  Last Modified 2013-02-19
M: 4/4
L: 1/8
R: reel
K: Ddor
||!3!F2!1!DE F2DE|FEFG !2!E!1!CCE|!3!F2DE FGAG|!3!F!1!D!4!E!2!C !1!A,!3!D !1!D!2!E|
!3!F2DE F!4!G!2!AB|!4!c!2!A!1!G!3!F !2!E!1!D!2!C!4!E|!1!DEF!4!G !2!A!5!dd!4!c|!2!AA!1!G!2!E E!1!DD2:|
!5!d2 Ad dcA!1!G|!3!F2!1!D!3!F !2!E!1!CC2|!5!d3(d d)cAG|!2!ABcA !5!!3!d3!4!e|
!5!f!3!d!4!e!3!d !4!c!2!AA!1!G|!2!E3E E!1!D!2!C!4!E|!1!DEF!4!G !2!Addc|!2!AA!1!G!2!E E!1!DD2:|


